public/logo-orange.svg

<?xml version="1.0" encoding="UTF-8"?>
<svg xmlns="http://www.w3.org/2000/svg" xmlns:xlink="http://www.w3.org/1999/xlink" width="40px" height="40px" viewBox="0 0 40 40" version="1.1">
<g id="surface1">
<path style=" stroke:none;fill-rule:evenodd;fill:rgb(99.607843%,35.686275%,17.254902%);fill-opacity:1;" d="M 17.875 0 L 17.875 4.824219 L 19.453125 18.519531 C 19.449219 18.519531 19.449219 18.519531 19.445312 18.519531 L 10.773438 7.765625 L 7.359375 4.355469 L 5.914062 5.804688 L 4.355469 7.363281 L 7.765625 10.773438 L 18.53125 19.316406 C 18.527344 19.324219 18.523438 19.332031 18.519531 19.339844 L 4.824219 17.875 L 0 17.875 L 0 22.125 L 4.824219 22.125 L 18.417969 20.558594 C 18.421875 20.578125 18.429688 20.601562 18.4375 20.621094 L 7.765625 29.230469 L 4.355469 32.640625 L 7.359375 35.644531 L 10.773438 32.234375 L 19.246094 21.550781 C 19.273438 21.566406 19.300781 21.578125 19.328125 21.589844 L 17.875 35.175781 L 17.875 40 L 22.125 40 L 22.125 35.175781 L 20.566406 21.632812 C 20.59375 21.621094 20.621094 21.613281 20.648438 21.601562 L 29.226562 32.234375 L 32.640625 35.644531 L 34.085938 34.199219 L 35.644531 32.636719 L 32.234375 29.226562 L 21.519531 20.726562 C 21.53125 20.707031 21.539062 20.6875 21.546875 20.667969 L 35.175781 22.125 L 40 22.125 L 40 17.875 L 35.175781 17.875 L 21.527344 19.445312 C 21.523438 19.4375 21.519531 19.425781 21.515625 19.417969 L 32.234375 10.769531 L 35.644531 7.359375 L 32.640625 4.355469 L 29.226562 7.765625 L 20.660156 18.5625 C 20.660156 18.5625 20.65625 18.5625 20.65625 18.5625 L 22.125 4.824219 L 22.125 0 Z M 17.875 0 "/>
</g>
</svg>

<svg xmlns="http://www.w3.org/2000/svg" width="40" height="40"><path style="stroke:none;fill-rule:evenodd;fill:#fe5b2c;fill-opacity:1" d="M17.875 0v4.824l1.578 13.696h-.008L10.773 7.766 7.36 4.356 5.914 5.804 4.355 7.363l3.41 3.41 10.766 8.543-.011.024-13.696-1.465H0v4.25h4.824l13.594-1.566c.004.02.012.043.02.062l-10.672 8.61-3.41 3.41 3.003 3.004 3.414-3.41 8.473-10.684a.78.78 0 0 0 .082.039l-1.453 13.586V40h4.25v-4.824l-1.559-13.543c.028-.012.055-.02.082-.031l8.579 10.632 3.414 3.41 1.445-1.445 1.559-1.562-3.41-3.41-10.715-8.5c.011-.02.02-.04.027-.059l13.629 1.457H40v-4.25h-4.824l-13.649 1.57c-.004-.008-.007-.02-.011-.027l10.718-8.648 3.41-3.41-3.003-3.005-3.414 3.41-8.567 10.797h-.004l1.469-13.738V0Zm0 0"/></svg>
